icons-src/harbour-parkingchaos.svg

<?xml version="1.0" encoding="UTF-8" standalone="no"?>
<svg
   xmlns:dc="http://purl.org/dc/elements/1.1/"
   xmlns:cc="http://creativecommons.org/ns#"
   xmlns:rdf="http://www.w3.org/1999/02/22-rdf-syntax-ns#"
   xmlns:svg="http://www.w3.org/2000/svg"
   xmlns="http://www.w3.org/2000/svg"
   xmlns:xlink="http://www.w3.org/1999/xlink"
   xmlns:sodipodi="http://sodipodi.sourceforge.net/DTD/sodipodi-0.dtd"
   xmlns:inkscape="http://www.inkscape.org/namespaces/inkscape"
   inkscape:version="1.0 (4035a4fb49, 2020-05-01)"
   sodipodi:docname="harbour-harbourchaos.svg"
   id="svg17"
   xml:space="preserve"
   enable-background="new 0 0 86 86"
   viewBox="0 0 86 86"
   height="86px"
   width="86px"
   y="0px"
   x="0px"
   version="1.1"><metadata
   id="metadata23"><rdf:RDF><cc:Work
       rdf:about=""><dc:format>image/svg+xml</dc:format><dc:type
         rdf:resource="http://purl.org/dc/dcmitype/StillImage" /></cc:Work></rdf:RDF></metadata><defs
   id="defs21"><linearGradient
     id="SVGID_1_"
     gradientUnits="userSpaceOnUse"
     x1="12.8064"
     y1="73.1937"
     x2="73.1934"
     y2="12.8067">
		<stop
   offset="0"
   style="stop-color:#191b3f;stop-opacity:1"
   id="stop3" />
		<stop
   offset="1"
   style="stop-color:#294077;stop-opacity:1"
   id="stop5" />
	</linearGradient><linearGradient
     gradientTransform="translate(101.47548,115.36186)"
     y2="12.8067"
     x2="73.1934"
     y1="73.1937"
     x1="12.8064"
     gradientUnits="userSpaceOnUse"
     id="linearGradient1114"
     xlink:href="#SVGID_1_"
     inkscape:collect="always" /><clipPath
     id="clipPath1207"
     clipPathUnits="userSpaceOnUse"><circle
       transform="rotate(90)"
       fill="url(#SVGID_1_)"
       cx="43"
       cy="43"
       r="42.700001"
       id="circle1209"
       style="fill:#000000;fill-opacity:1" /></clipPath><clipPath
     id="clipPath1211"
     clipPathUnits="userSpaceOnUse"><circle
       transform="scale(-1)"
       style="fill:#000000;fill-opacity:1"
       id="circle1213"
       r="42.700001"
       cy="43"
       cx="43"
       fill="url(#SVGID_1_)" /></clipPath><clipPath
     id="clipPath1215"
     clipPathUnits="userSpaceOnUse"><circle
       transform="rotate(90)"
       fill="url(#SVGID_1_)"
       cx="43"
       cy="43"
       r="42.700001"
       id="circle1217"
       style="fill:#000000;fill-opacity:1" /></clipPath><clipPath
     id="clipPath1219"
     clipPathUnits="userSpaceOnUse"><circle
       transform="scale(-1)"
       style="fill:#000000;fill-opacity:1"
       id="circle1221"
       r="42.700001"
       cy="43"
       cx="43"
       fill="url(#SVGID_1_)" /></clipPath><clipPath
     id="clipPath1223"
     clipPathUnits="userSpaceOnUse"><circle
       transform="scale(-1)"
       fill="url(#SVGID_1_)"
       cx="43"
       cy="43"
       r="42.700001"
       id="circle1225"
       style="fill:#000000;fill-opacity:1" /></clipPath><clipPath
     id="clipPath1227"
     clipPathUnits="userSpaceOnUse"><circle
       transform="scale(-1)"
       style="fill:#000000;fill-opacity:1"
       id="circle1229"
       r="42.700001"
       cy="43"
       cx="43"
       fill="url(#SVGID_1_)" /></clipPath><clipPath
     id="clipPath1248"
     clipPathUnits="userSpaceOnUse"><rect
       ry="2"
       y="-81.291016"
       x="-6.875"
       height="15"
       width="45"
       id="rect1250"
       style="fill:#090ac4;fill-opacity:1;stroke-width:5.52639;stroke-linecap:round;stroke-linejoin:round"
       transform="rotate(90)"
       clip-path="none" /></clipPath><linearGradient
     y2="12.8067"
     x2="73.1934"
     y1="73.1937"
     x1="12.8064"
     gradientUnits="userSpaceOnUse"
     id="linearGradient1458"
     xlink:href="#SVGID_1_"
     inkscape:collect="always" /></defs><sodipodi:namedview
   inkscape:guide-bbox="true"
   showguides="true"
   inkscape:current-layer="layer1"
   inkscape:window-maximized="1"
   inkscape:window-y="0"
   inkscape:window-x="0"
   inkscape:cy="43"
   inkscape:cx="43"
   inkscape:zoom="9.4883721"
   showgrid="false"
   id="namedview19"
   inkscape:window-height="1009"
   inkscape:window-width="1920"
   inkscape:pageshadow="2"
   inkscape:pageopacity="0"
   guidetolerance="10"
   gridtolerance="10"
   objecttolerance="10"
   borderopacity="1"
   bordercolor="#666666"
   pagecolor="#ffffff" />
<g
   display="none"
   id="Layer_2">
</g>

<g
   inkscape:label="Layer 1"
   id="layer1"
   inkscape:groupmode="layer"><circle
     style="fill:url(#SVGID_1_);stroke:none"
     id="circle1454"
     r="42.700001"
     cy="43"
     cx="43"
     fill="url(#SVGID_1_)" /><rect
     clip-path="url(#clipPath1227)"
     transform="scale(-1)"
     style="fill:#2d8955;fill-opacity:1;stroke-width:0;stroke-linecap:round;stroke-linejoin:round;stroke:none;stroke-opacity:1;stroke-miterlimit:4;stroke-dasharray:none"
     id="rect1141"
     width="30"
     height="15"
     x="-79.291016"
     y="-72.125"
     ry="2" /><circle
     clip-path="url(#clipPath1248)"
     style="fill:#37ba70;fill-opacity:1;stroke:none;stroke-opacity:1;stroke-width:0;stroke-miterlimit:4;stroke-dasharray:none"
     id="circle1235"
     r="42.700001"
     cy="43"
     cx="43"
     fill="url(#SVGID_1_)" /><rect
     clip-path="url(#clipPath1211)"
     ry="2"
     y="-23.125"
     x="-30.291016"
     height="15"
     width="30"
     id="rect1143"
     style="fill:#916ed8;fill-opacity:1;stroke-width:0;stroke-linecap:round;stroke-linejoin:round;stroke:none;stroke-opacity:1;stroke-miterlimit:4;stroke-dasharray:none"
     transform="scale(-1)" /><rect
     clip-path="url(#clipPath1223)"
     transform="scale(-1)"
     style="fill:#5b5cc3;fill-opacity:1;stroke-width:0;stroke-linecap:round;stroke-linejoin:round;stroke:none;stroke-opacity:1;stroke-miterlimit:4;stroke-dasharray:none"
     id="rect1145"
     width="45"
     height="15"
     x="-77.291016"
     y="-89.125"
     ry="2" /><rect
     clip-path="url(#clipPath1219)"
     ry="2"
     y="-72.125"
     x="-30.291016"
     height="15"
     width="45"
     id="rect1147"
     style="fill:#e5b300;fill-opacity:1;stroke-width:0;stroke-linecap:round;stroke-linejoin:round;stroke:none;stroke-opacity:1;stroke-miterlimit:4;stroke-dasharray:none"
     transform="scale(-1)" /><rect
     clip-path="url(#clipPath1215)"
     y="0.29101601"
     x="-55.125"
     height="15"
     width="30"
     id="rect1149"
     style="fill:#88aa00;fill-opacity:1;stroke-width:0;stroke-linecap:round;stroke-linejoin:round;stroke:none;stroke-opacity:1;stroke-miterlimit:4;stroke-dasharray:none"
     transform="rotate(-90)"
     ry="2" /><rect
     clip-path="url(#clipPath1207)"
     y="49.291016"
     x="-23.125"
     height="15"
     width="30"
     id="rect1153"
     style="fill:#edbf0f;fill-opacity:1;stroke-width:0;stroke-linecap:round;stroke-linejoin:round;stroke:none;stroke-opacity:1;stroke-miterlimit:4;stroke-dasharray:none"
     transform="rotate(-90)"
     ry="2" /><rect
     ry="2"
     transform="rotate(-90)"
     style="fill:#a598c1;fill-opacity:1;stroke-width:0;stroke-linecap:round;stroke-linejoin:round;stroke:none;stroke-opacity:1;stroke-miterlimit:4;stroke-dasharray:none"
     id="rect876"
     width="30"
     height="15"
     x="-72.124268"
     y="32.291931" /><rect
     ry="2"
     y="-40.124271"
     x="-47.291935"
     height="15"
     width="30"
     id="rect874"
     style="fill:#d63933;fill-opacity:1;stroke-width:0;stroke-linecap:round;stroke-linejoin:round;stroke:none;stroke-opacity:1;stroke-miterlimit:4;stroke-dasharray:none"
     transform="scale(-1)" /><g
     transform="translate(109.15851,-91.524046)"
     id="g1448"><rect
       style="fill:#0f0e0d;fill-opacity:1;stroke:none;stroke-width:1;stroke-linecap:round;stroke-linejoin:round;stroke-miterlimit:4;stroke-dasharray:none;stroke-opacity:1"
       id="rect1405"
       width="96.646515"
       height="90.360123"
       x="77.291016"
       y="89.125"
       ry="2" /><rect
       style="fill:#916ed8;fill-opacity:1;stroke:none;stroke-width:1;stroke-linecap:round;stroke-linejoin:round;stroke-miterlimit:4;stroke-dasharray:none;stroke-opacity:1"
       id="rect1417"
       width="23.236475"
       height="13.420282"
       x="81.392487"
       y="105.22935"
       ry="2" /><rect
       style="fill:#88aa00;fill-opacity:1;stroke:none;stroke-width:1;stroke-linecap:round;stroke-linejoin:round;stroke-miterlimit:4;stroke-dasharray:none;stroke-opacity:1"
       id="rect1419"
       width="11.270658"
       height="20.054976"
       x="82.550339"
       y="123.60552"
       ry="2" /><rect
       style="fill:#d63933;fill-opacity:1;stroke:none;stroke-width:1;stroke-linecap:round;stroke-linejoin:round;stroke-miterlimit:4;stroke-dasharray:none;stroke-opacity:1"
       id="rect1421"
       width="18.292789"
       height="5.6717153"
       x="102.18989"
       y="123.57341"
       ry="2" /><rect
       style="fill:#edbf0f;fill-opacity:1;stroke:none;stroke-width:1;stroke-linecap:round;stroke-linejoin:round;stroke-miterlimit:4;stroke-dasharray:none;stroke-opacity:1"
       id="rect1423"
       width="5.3995638"
       height="20.574049"
       x="116.55277"
       y="139.11841"
       ry="2" /><rect
       style="fill:#edbf0f;fill-opacity:1;stroke:none;stroke-width:1;stroke-linecap:round;stroke-linejoin:round;stroke-miterlimit:4;stroke-dasharray:none;stroke-opacity:1"
       id="rect1425"
       width="29.996902"
       height="6.9130821"
       x="79.71682"
       y="153.71402"
       ry="2" /><rect
       style="fill:#090ac4;fill-opacity:1;stroke:none;stroke-width:1;stroke-linecap:round;stroke-linejoin:round;stroke-miterlimit:4;stroke-dasharray:none;stroke-opacity:1"
       id="rect1427"
       width="34.75975"
       height="7.7993183"
       x="114.7978"
       y="164.82613"
       ry="2" /><rect
       style="fill:#2d8955;fill-opacity:1;stroke:none;stroke-width:1;stroke-linecap:round;stroke-linejoin:round;stroke-miterlimit:4;stroke-dasharray:none;stroke-opacity:1"
       id="rect1429"
       width="19.720135"
       height="7.2074957"
       x="128.83148"
       y="151.51486"
       ry="2" /><rect
       style="fill:#445500;fill-opacity:1;stroke:none;stroke-width:1;stroke-linecap:round;stroke-linejoin:round;stroke-miterlimit:4;stroke-dasharray:none;stroke-opacity:1"
       id="rect1431"
       width="8.5851002"
       height="40.404072"
       x="142.84717"
       y="92.623856"
       ry="2" /><rect
       style="fill:#4c84b2;fill-opacity:1;stroke:none;stroke-width:1;stroke-linecap:round;stroke-linejoin:round;stroke-miterlimit:4;stroke-dasharray:none;stroke-opacity:1"
       id="rect1433"
       width="8.5971813"
       height="18.400036"
       x="157.31122"
       y="94.408646"
       ry="2" /><rect
       style="fill:#edbf0f;fill-opacity:1;stroke:none;stroke-width:1;stroke-linecap:round;stroke-linejoin:round;stroke-miterlimit:4;stroke-dasharray:none;stroke-opacity:1"
       id="rect1435"
       width="5.0500455"
       height="32.068768"
       x="130.53717"
       y="84.539597"
       ry="2" /></g><path
     d="M 42.964844 0.30078125 A 42.700001 42.700001 0 0 0 0.30078125 43 A 42.700001 42.700001 0 0 0 43 85.699219 A 42.700001 42.700001 0 0 0 85.699219 43 A 42.700001 42.700001 0 0 0 43 0.30078125 A 42.700001 42.700001 0 0 0 42.964844 0.30078125 z M 43 3.2265625 A 39.773502 39.773502 0 0 1 82.773438 43 A 39.773502 39.773502 0 0 1 43 82.773438 A 39.773502 39.773502 0 0 1 3.2265625 43 A 39.773502 39.773502 0 0 1 43 3.2265625 z "
     style="fill:url(#linearGradient1458);stroke:none"
     id="circle8" /></g></svg>

<?xml version="1.0" encoding="UTF-8"?>
<svg id="svg17" width="86px" height="86px" enable-background="new 0 0 86 86" version="1.1" viewBox="0 0 86 86" xml:space="preserve" xmlns="http://www.w3.org/2000/svg" xmlns:cc="http://creativecommons.org/ns#" xmlns:dc="http://purl.org/dc/elements/1.1/" xmlns:rdf="http://www.w3.org/1999/02/22-rdf-syntax-ns#" xmlns:xlink="http://www.w3.org/1999/xlink"><metadata id="metadata23"><rdf:RDF><cc:Work rdf:about=""><dc:format>image/svg+xml</dc:format><dc:type rdf:resource="http://purl.org/dc/dcmitype/StillImage"/><dc:date>2020-2022</dc:date><dc:creator><cc:Agent><dc:title>Mirian Margiani</dc:title></cc:Agent></dc:creator><dc:rights><cc:Agent><dc:title>CC-BY-SA 4.0</dc:title></cc:Agent></dc:rights><cc:license rdf:resource="http://creativecommons.org/licenses/by-sa/4.0/"/><dc:description>Based on harbour-parkmeecrazy.png by Karsten Todtermuschke and Mures Andone: https://git.code.sf.net/p/parkmeecrazyforsailfishos/code</dc:description></cc:Work><cc:License rdf:about="http://creativecommons.org/licenses/by-sa/4.0/"><cc:permits rdf:resource="http://creativecommons.org/ns#Reproduction"/><cc:permits rdf:resource="http://creativecommons.org/ns#Distribution"/><cc:requires rdf:resource="http://creativecommons.org/ns#Notice"/><cc:requires rdf:resource="http://creativecommons.org/ns#Attribution"/><cc:permits rdf:resource="http://creativecommons.org/ns#DerivativeWorks"/><cc:requires rdf:resource="http://creativecommons.org/ns#ShareAlike"/></cc:License></rdf:RDF></metadata><defs id="defs21"><linearGradient id="SVGID_1_" x1="12.806" x2="73.193" y1="73.194" y2="12.807" gradientUnits="userSpaceOnUse">
		<stop id="stop3" stop-color="#191b3f" offset="0"/>
		<stop id="stop5" stop-color="#294077" offset="1"/>
	</linearGradient><clipPath id="clipPath1207"><circle id="circle1209" transform="rotate(90)" cx="43" cy="43" r="42.7"/></clipPath><clipPath id="clipPath1211"><circle id="circle1213" transform="scale(-1)" cx="43" cy="43" r="42.7"/></clipPath><clipPath id="clipPath1215"><circle id="circle1217" transform="rotate(90)" cx="43" cy="43" r="42.7"/></clipPath><clipPath id="clipPath1219"><circle id="circle1221" transform="scale(-1)" cx="43" cy="43" r="42.7"/></clipPath><clipPath id="clipPath1223"><circle id="circle1225" transform="scale(-1)" cx="43" cy="43" r="42.7"/></clipPath><clipPath id="clipPath1227"><circle id="circle1229" transform="scale(-1)" cx="43" cy="43" r="42.7"/></clipPath><clipPath id="clipPath1248"><rect id="rect1250" transform="rotate(90)" x="-6.875" y="-81.291" width="45" height="15" ry="2" fill="#090ac4" stroke-linecap="round" stroke-linejoin="round" stroke-width="5.5264"/></clipPath><linearGradient id="linearGradient1458" x1="12.806" x2="73.193" y1="73.194" y2="12.807" gradientUnits="userSpaceOnUse" xlink:href="#SVGID_1_"/></defs>


<g id="layer1"><circle id="circle1454" cx="43" cy="43" r="42.7" fill="url(#SVGID_1_)"/><rect id="rect1141" transform="scale(-1)" x="-79.291" y="-72.125" width="30" height="15" ry="2" clip-path="url(#clipPath1227)" fill="#2d8955"/><circle id="circle1235" cx="43" cy="43" r="42.7" clip-path="url(#clipPath1248)" fill="#37ba70"/><rect id="rect1143" transform="scale(-1)" x="-30.291" y="-23.125" width="30" height="15" ry="2" clip-path="url(#clipPath1211)" fill="#916ed8"/><rect id="rect1145" transform="scale(-1)" x="-77.291" y="-89.125" width="45" height="15" ry="2" clip-path="url(#clipPath1223)" fill="#5b5cc3"/><rect id="rect1147" transform="scale(-1)" x="-30.291" y="-72.125" width="45" height="15" ry="2" clip-path="url(#clipPath1219)" fill="#e5b300"/><rect id="rect1149" transform="rotate(-90)" x="-55.125" y=".29102" width="30" height="15" ry="2" clip-path="url(#clipPath1215)" fill="#8a0"/><rect id="rect1153" transform="rotate(-90)" x="-23.125" y="49.291" width="30" height="15" ry="2" clip-path="url(#clipPath1207)" fill="#edbf0f"/><rect id="rect876" transform="rotate(-90)" x="-72.124" y="32.292" width="30" height="15" ry="2" fill="#a598c1"/><rect id="rect874" transform="scale(-1)" x="-47.292" y="-40.124" width="30" height="15" ry="2" fill="#d63933"/><g id="g1448" transform="translate(109.16 -91.524)"><rect id="rect1405" x="77.291" y="89.125" width="96.647" height="90.36" ry="2" fill="#0f0e0d"/><rect id="rect1417" x="81.392" y="105.23" width="23.236" height="13.42" ry="2" fill="#916ed8"/><rect id="rect1419" x="82.55" y="123.61" width="11.271" height="20.055" ry="2" fill="#8a0"/><rect id="rect1421" x="102.19" y="123.57" width="18.293" height="5.6717" ry="2" fill="#d63933"/><rect id="rect1423" x="116.55" y="139.12" width="5.3996" height="20.574" ry="2" fill="#edbf0f"/><rect id="rect1425" x="79.717" y="153.71" width="29.997" height="6.9131" ry="2" fill="#edbf0f"/><rect id="rect1427" x="114.8" y="164.83" width="34.76" height="7.7993" ry="2" fill="#090ac4"/><rect id="rect1429" x="128.83" y="151.51" width="19.72" height="7.2075" ry="2" fill="#2d8955"/><rect id="rect1431" x="142.85" y="92.624" width="8.5851" height="40.404" ry="2" fill="#450"/><rect id="rect1433" x="157.31" y="94.409" width="8.5972" height="18.4" ry="2" fill="#4c84b2"/><rect id="rect1435" x="130.54" y="84.54" width="5.05" height="32.069" ry="2" fill="#edbf0f"/></g><path id="circle8" d="m42.965 0.30078a42.7 42.7 0 0 0-42.664 42.699 42.7 42.7 0 0 0 42.699 42.699 42.7 42.7 0 0 0 42.699-42.699 42.7 42.7 0 0 0-42.699-42.699 42.7 42.7 0 0 0-0.035156 0zm0.035156 2.9258a39.774 39.774 0 0 1 39.773 39.773 39.774 39.774 0 0 1-39.773 39.773 39.774 39.774 0 0 1-39.773-39.773 39.774 39.774 0 0 1 39.773-39.773z" fill="url(#linearGradient1458)"/></g></svg>
